!!!OTL: JETZT GEHT DER MARSCH INS FELD
!!!ARE: Europa, Mitteleuropa, Deutschland, Westerwald
!!!SCT: E1336
!!!YEM: Copyright 1995, estate of Helmut Schaffrath.
**kern
*ICvox
*Ivox
*M4/4
*k[f#]
*G:
{4d
=1
4.g
8a
8b
8a
8b
8cc
=2
4.dd}
{8ee
4.dd
8b
=3
8dd
8dd
8cc
8cc
4b
8a
8a
=4
2b
4r}
{8g
8b
=5
4dd
8dd
8dd
4cc
8cc
8cc
=6
4b
8dd
8b
4a}
{8g
8b
=7
4dd
8dd
8dd
4cc
8cc
8cc
=8
4b
8dd
8b
4a}
{8b
8a
=9
4.g
8a
8b
8a
8b
8cc
=10
2.dd}
{8ee
8ee
=11
8dd
8ee
8dd
8cc
4b
4a
=12
2g
4r}
==
!!!AGN: Staende -, Soldaten -, Kriegs - Lied
!!!ONB: ESAC (Essen Associative Code) Database: ERK3
!!!AMT: simple quadruple
!!!AIN: vox
!!!EED: Helmut Schaffrath
!!!EEV: 1.0
*-
